X: 10152
T: LADY ANN STEWART'S STRATHSPEY
%R: strathspey
B: W. Hamilton "Universal Tune-Book" Vol. 1 Glasgow 1844 p.15 #2
S: http://imslp.org/wiki/Hamilton's_Universal_Tune-Book_(Various)
Z: 2016 John Chambers <jc:trillian.mit.edu>
M: C
L: 1/16
K: A
% - - - - - - - - - - - - - - - - - - - - - - - - -
(e/f/g) |\
a2e2e3f e4 c2(de) | f3Ae3A G2B2B3g |\
a2e2e3f e4c2A2 | G/A/B3 G3F E2A2A2 :|\
(cB) |\
A2c2F2A2 E2A2C2E2 | (A/B/c3) B3A G2B2 B3(c/B/) |
A2c2F2A2 E2A2C2E2 | (G/A/)B3 B3A E2A2A2 (cB) |\
A2c2F2A2 E2A2C2E2 | (AB)(cd) e3A G2B2 B3(c/B/) |\
A2C2D2E2 F3G A2f2 | eA3 G3F E2A2A2 |]
% - - - - - - - - - - - - - - - - - - - - - - - - -

%%sep 1 1 500
%%sep 1 1 500

